Newaita/actions/16/tools-rip-video-cd.svg

<?xml version="1.0" encoding="UTF-8"?>
<svg xmlns="http://www.w3.org/2000/svg" xmlns:xlink="http://www.w3.org/1999/xlink" width="16pt" height="16pt" viewBox="0 0 16 16" version="1.1">
<g id="surface1">
<path style=" stroke:none;fill-rule:nonzero;fill:rgb(25.882354%,25.882354%,25.882354%);fill-opacity:1;" d="M 7.9375 0.785156 C 3.90625 0.785156 0.660156 4.03125 0.660156 8.0625 L 1.652344 8.0625 C 1.652344 4.582031 4.457031 1.777344 7.9375 1.777344 C 11.417969 1.777344 14.222656 4.582031 14.222656 8.0625 C 14.222656 11.542969 11.417969 14.347656 7.9375 14.347656 L 7.9375 15.339844 C 11.96875 15.339844 15.214844 12.09375 15.214844 8.0625 C 15.214844 4.03125 11.96875 0.785156 7.9375 0.785156 Z M 7.9375 0.785156 "/>
<path style=" stroke:none;fill-rule:nonzero;fill:rgb(47.058824%,56.470591%,61.176473%);fill-opacity:1;" d="M 7.9375 5.417969 C 6.472656 5.417969 5.292969 6.597656 5.292969 8.0625 C 5.292969 9.527344 6.472656 10.710938 7.9375 10.710938 C 9.402344 10.710938 10.585938 9.527344 10.585938 8.0625 C 10.585938 6.597656 9.402344 5.417969 7.9375 5.417969 Z M 7.9375 6.738281 C 8.671875 6.738281 9.261719 7.332031 9.261719 8.0625 C 9.261719 8.796875 8.671875 9.386719 7.9375 9.386719 C 7.207031 9.386719 6.613281 8.796875 6.613281 8.0625 C 6.613281 7.332031 7.207031 6.738281 7.9375 6.738281 Z M 7.9375 6.738281 "/>
<path style=" stroke:none;fill-rule:nonzero;fill:rgb(25.882354%,64.705884%,96.078432%);fill-opacity:1;" d="M 7.9375 2.109375 L 7.9375 5.417969 C 9.402344 5.417969 10.585938 6.597656 10.585938 8.0625 L 13.890625 8.0625 C 13.890625 4.765625 11.238281 2.109375 7.9375 2.109375 Z M 7.9375 2.109375 "/>
<path style=" stroke:none;fill-rule:evenodd;fill:rgb(25.882354%,64.705884%,96.078432%);fill-opacity:1;" d="M 2.316406 9.71875 C 2.132812 9.71875 1.984375 9.867188 1.984375 10.046875 L 1.984375 14.015625 C 1.984375 14.269531 2.253906 14.425781 2.472656 14.308594 L 6.113281 12.324219 C 6.339844 12.195312 6.339844 11.867188 6.113281 11.742188 L 2.472656 9.757812 C 2.425781 9.730469 2.371094 9.71875 2.316406 9.71875 Z M 2.316406 9.71875 "/>
</g>
</svg>

<svg xmlns="http://www.w3.org/2000/svg" width="16pt" height="16pt" viewBox="0 0 16 16"><path d="M7.938.785A7.262 7.262 0 0 0 .66 8.062h.992a6.273 6.273 0 0 1 6.285-6.285 6.273 6.273 0 0 1 6.286 6.285 6.273 6.273 0 0 1-6.286 6.286v.992a7.262 7.262 0 0 0 7.278-7.277A7.262 7.262 0 0 0 7.938.785zm0 0" fill="#424242"/><path d="M7.938 5.418a2.639 2.639 0 0 0-2.645 2.644 2.642 2.642 0 0 0 2.644 2.649 2.646 2.646 0 0 0 2.649-2.649 2.642 2.642 0 0 0-2.649-2.644zm0 1.32c.734 0 1.324.594 1.324 1.324a1.32 1.32 0 0 1-1.325 1.325 1.325 1.325 0 0 1 0-2.648zm0 0" fill="#78909c"/><path d="M7.938 2.11v3.308a2.642 2.642 0 0 1 2.648 2.644h3.305A5.94 5.94 0 0 0 7.937 2.11zm0 0" fill="#42a5f5"/><path d="M2.316 9.719a.33.33 0 0 0-.332.328v3.969c0 .254.27.41.489.293l3.64-1.985a.334.334 0 0 0 0-.582l-3.64-1.984a.31.31 0 0 0-.157-.04zm0 0" fill-rule="evenodd" fill="#42a5f5"/></svg>
